X:933
T:Oyster Girl, The
S:Pete Coe, July 2008
Z:Nigel Gatherer
M:6/8
L:1/8
K:G
B | ded B2G | A2F D3 | GFG BAB | d2c A3 |
ded Bdg | f2e d2e | d2B cBA | G3- d2 :|
d | Bcd Bcd | e2c e2c | ABC ABC | d2B d2B |
ded Bdg | f2e d2e | d2B cBA | G3- d2 :|
<end>
<start>
